X:34
T:Each ailment but love
T:Gach tinneas ach gaol
R:Slow Air
S:Simon Fraser Collection
N:No.126
O:Scottish
M:6/8
L:1/8
Q:3/8=70
K:C
E/F/|Gcc c>de|GEE E2 E/F/|Gcc c>de/E/|EDD D2 E/F/|Gcc c>de|
C>EG/4c/4e/4f/4 g2 g/4a/4g/4f/4|e>dc/B/ cBA|GEE E2:|
|:(3c/B/A/|GEE cEE|GEE E2 (3c/B/A/|GEE cEE|DDD D2 (3c/B/A/|
GEE cEE| C>EG/4c/4e/4f/4 g2 g/4a/4g/4f/4|e>dc/B/ c>BA|
GEE E2 (3c'/b/a/|gee c'ee|gee e2 (3c'/b/a/|gee c'ee|ddd d2 (3c'/b/a/|
gee c'ee|c/B/c/d/e/f/ g2 g/4a/4g/4f/4|e>dc/B/ cBA|GEE E2:|

